**harm	**harte	**timestamp	**phrase	**leadinstrument	**kern
*M4/4	*M4/4	*	*	*	*
*D-:	*D-:	*	*	*	*D-:
1r;	N	0	.	r	1r;
=1	=1	=1	=1	=1	=1
*>A2_intro	*>A2_intro	*>A2_intro	*>A2_intro	*>A2_intro	*>A2_intro
1I	D-:maj	0.978	newline	voice	1D- 1f 1a-
=2	=2	=2	=2	=2	=2
1Im7	D-:7	3.218	.	voice	1D- 1f 1a- 1cc
=3	=3	=3	=3	=3	=3
1IId	E-:maj/b7	5.458	.	voice	1e- 1g 1b-
=4	=4	=4	=4	=4	=4
1IId	E-:maj/b7	7.698	.	voice	1e- 1g 1b-
=5	=5	=5	=5	=5	=5
1iid	E-:min/b7	9.938	newline	voice	1e- 1g- 1b-
=6	=6	=6	=6	=6	=6
1iio7d	E-:hdim7/b7	12.195	.	voice	1e- 1g- 1b-- 1D-
=7	=7	=7	=7	=7	=7
1I	D-:maj	14.453	.	voice	1D- 1f 1a-
=8	=8	=8	=8	=8	=8
1I	D-:maj	16.71	.	voice	1D- 1f 1a-
=9	=9	=9	=9	=9	=9
*>B_trans	*>B_trans	*>B_trans	*>B_trans	*>B_trans	*>B_trans
1I	D-:maj	18.967	newline	guitar	1D- 1f 1a-
=10	=10	=10	=10	=10	=10
1I	D-:maj	21.053	.	guitar	1D- 1f 1a-
=11	=11	=11	=11	=11	=11
1I	D-:maj	23.138	.	guitar	1D- 1f 1a-
=12	=12	=12	=12	=12	=12
1I	D-:maj	25.223	.	guitar	1D- 1f 1a-
=13	=13	=13	=13	=13	=13
*>A_verse	*>A_verse	*>A_verse	*>A_verse	*>A_verse	*>A_verse
1I	D-:maj	27.309	newline	voice	1D- 1f 1a-
=14	=14	=14	=14	=14	=14
1I	D-:maj	29.363	.	voice	1D- 1f 1a-
=15	=15	=15	=15	=15	=15
1iid	E-:min/b7	31.418	.	voice	1e- 1g- 1b-
=16	=16	=16	=16	=16	=16
1iid	E-:min/b7	33.472	.	voice	1e- 1g- 1b-
=17	=17	=17	=17	=17	=17
1iid	E-:min/b7	35.527	newline	voice	1e- 1g- 1b-
=18	=18	=18	=18	=18	=18
1iio7d	E-:hdim7/b7	37.57	.	voice	1e- 1g- 1b-- 1D-
=19	=19	=19	=19	=19	=19
1I	D-:maj	39.613	.	voice	1D- 1f 1a-
=20	=20	=20	=20	=20	=20
1I	D-:maj	41.657	.	voice	1D- 1f 1a-
=21	=21	=21	=21	=21	=21
1I	D-:maj	43.7	newline	voice	1D- 1f 1a-
=22	=22	=22	=22	=22	=22
1I	D-:maj	45.764	.	voice	1D- 1f 1a-
=23	=23	=23	=23	=23	=23
1iid	E-:min/b7	47.829	.	voice	1e- 1g- 1b-
=24	=24	=24	=24	=24	=24
1iid	E-:min/b7	49.893	.	voice	1e- 1g- 1b-
=25	=25	=25	=25	=25	=25
1iid	E-:min/b7	51.957	newline	voice	1e- 1g- 1b-
=26	=26	=26	=26	=26	=26
1iio7d	E-:hdim7/b7	53.998	.	voice	1e- 1g- 1b-- 1D-
=27	=27	=27	=27	=27	=27
1I	D-:maj	56.038	.	voice	1D- 1f 1a-
=28	=28	=28	=28	=28	=28
1I	D-:maj	58.078	.	voice	1D- 1f 1a-
=29	=29	=29	=29	=29	=29
*>A_verse	*>A_verse	*>A_verse	*>A_verse	*>A_verse	*>A_verse
1I	D-:maj	60.118	newline	voice	1D- 1f 1a-
=30	=30	=30	=30	=30	=30
1I	D-:maj	62.172	.	voice	1D- 1f 1a-
=31	=31	=31	=31	=31	=31
1iid	E-:min/b7	64.226	.	voice	1e- 1g- 1b-
=32	=32	=32	=32	=32	=32
1iid	E-:min/b7	66.28	.	voice	1e- 1g- 1b-
=33	=33	=33	=33	=33	=33
1iid	E-:min/b7	68.334	newline	voice	1e- 1g- 1b-
=34	=34	=34	=34	=34	=34
1iio7d	E-:hdim7/b7	70.368	.	voice	1e- 1g- 1b-- 1D-
=35	=35	=35	=35	=35	=35
1I	D-:maj	72.401	.	voice	1D- 1f 1a-
=36	=36	=36	=36	=36	=36
1I	D-:maj	74.434	.	voice	1D- 1f 1a-
=37	=37	=37	=37	=37	=37
1I	D-:maj	76.468	newline	voice	1D- 1f 1a-
=38	=38	=38	=38	=38	=38
1I	D-:maj	78.516	.	voice	1D- 1f 1a-
=39	=39	=39	=39	=39	=39
1iid	E-:min/b7	80.564	.	voice	1e- 1g- 1b-
=40	=40	=40	=40	=40	=40
1iid	E-:min/b7	82.612	.	voice	1e- 1g- 1b-
=41	=41	=41	=41	=41	=41
1iid	E-:min/b7	84.66	newline	voice	1e- 1g- 1b-
=42	=42	=42	=42	=42	=42
1iio7d	E-:hdim7/b7	86.707	.	voice	1e- 1g- 1b-- 1D-
=43	=43	=43	=43	=43	=43
1I	D-:maj	88.755	.	voice	1D- 1f 1a-
=44	=44	=44	=44	=44	=44
1I	D-:maj	90.803	.	voice	1D- 1f 1a-
=45	=45	=45	=45	=45	=45
*>A_solo	*>A_solo	*>A_solo	*>A_solo	*>A_solo	*>A_solo
1I	D-:maj	92.85	newline	organ	1D- 1f 1a-
=46	=46	=46	=46	=46	=46
1I	D-:maj	94.899	.	organ	1D- 1f 1a-
=47	=47	=47	=47	=47	=47
1iid	E-:min/b7	96.949	.	organ	1e- 1g- 1b-
=48	=48	=48	=48	=48	=48
1iid	E-:min/b7	98.998	.	organ	1e- 1g- 1b-
=49	=49	=49	=49	=49	=49
1iid	E-:min/b7	101.047	newline	organ	1e- 1g- 1b-
=50	=50	=50	=50	=50	=50
1iio7d	E-:hdim7/b7	103.077	.	organ	1e- 1g- 1b-- 1D-
=51	=51	=51	=51	=51	=51
1I	D-:maj	105.107	.	organ	1D- 1f 1a-
=52	=52	=52	=52	=52	=52
1I	D-:maj	107.137	.	organ	1D- 1f 1a-
=53	=53	=53	=53	=53	=53
1I	D-:maj	109.167	newline	organ	1D- 1f 1a-
=54	=54	=54	=54	=54	=54
1I	D-:maj	111.202	.	organ	1D- 1f 1a-
=55	=55	=55	=55	=55	=55
1iid	E-:min/b7	113.238	.	organ	1e- 1g- 1b-
=56	=56	=56	=56	=56	=56
1iid	E-:min/b7	115.273	.	organ	1e- 1g- 1b-
=57	=57	=57	=57	=57	=57
1iid	E-:min/b7	117.308	newline	organ	1e- 1g- 1b-
=58	=58	=58	=58	=58	=58
1iid	E-:min/b7	119.317	.	organ	1e- 1g- 1b-
=59	=59	=59	=59	=59	=59
*D:	*D:	*	*	*	*D:
1V7	A:7	121.325	.	organ	1A 1cc# 1ee 1gg
=60	=60	=60	=60	=60	=60
1V7	A:7	123.334	.	organ	1A 1cc# 1ee 1gg
=61	=61	=61	=61	=61	=61
*>A_verse	*>A_verse	*>A_verse	*>A_verse	*>A_verse	*>A_verse
1I	D:maj	125.342	newline	voice	1D 1f# 1a
=62	=62	=62	=62	=62	=62
1I	D:maj	127.371	.	voice	1D 1f# 1a
=63	=63	=63	=63	=63	=63
1IId	E:maj/b7	129.4	.	voice	1e 1g# 1b
=64	=64	=64	=64	=64	=64
1IId	E:maj/b7	131.43	.	voice	1e 1g# 1b
=65	=65	=65	=65	=65	=65
1iid	E:min/b7	133.459	newline	voice	1e 1g 1b
=66	=66	=66	=66	=66	=66
1iio7d	E:hdim7/b7	135.486	.	voice	1e 1g 1b- 1D
=67	=67	=67	=67	=67	=67
1I	D:maj	137.513	.	voice	1D 1f# 1a
=68	=68	=68	=68	=68	=68
1I	D:maj	139.541	.	voice	1D 1f# 1a
=69	=69	=69	=69	=69	=69
1I	D:maj	141.568	newline	voice	1D 1f# 1a
=70	=70	=70	=70	=70	=70
1I	D:maj	143.586	.	voice	1D 1f# 1a
=71	=71	=71	=71	=71	=71
1IId	E:maj/b7	145.603	.	voice	1e 1g# 1b
=72	=72	=72	=72	=72	=72
1IId	E:maj/b7	147.62	.	voice	1e 1g# 1b
=73	=73	=73	=73	=73	=73
1iid	E:min/b7	149.637	newline	voice	1e 1g 1b
=74	=74	=74	=74	=74	=74
1iio7d	E:hdim7/b7	151.657	.	voice	1e 1g 1b- 1D
=75	=75	=75	=75	=75	=75
1I	D:maj	153.677	.	voice	1D 1f# 1a
=76	=76	=76	=76	=76	=76
1I	D:maj	155.696	.	voice	1D 1f# 1a
=77	=77	=77	=77	=77	=77
*>A_verse	*>A_verse	*>A_verse	*>A_verse	*>A_verse	*>A_verse
1I	D:maj	157.716	newline	voice	1D 1f# 1a
=78	=78	=78	=78	=78	=78
1I	D:maj	159.747	.	voice	1D 1f# 1a
=79	=79	=79	=79	=79	=79
1IId	E:maj/b7	161.778	.	voice	1e 1g# 1b
=80	=80	=80	=80	=80	=80
1IId	E:maj/b7	163.809	.	voice	1e 1g# 1b
=81	=81	=81	=81	=81	=81
1iid	E:min/b7	165.84	newline	voice	1e 1g 1b
=82	=82	=82	=82	=82	=82
1iio7d	E:hdim7/b7	167.865	.	voice	1e 1g 1b- 1D
=83	=83	=83	=83	=83	=83
1I	D:maj	169.89	.	voice	1D 1f# 1a
=84	=84	=84	=84	=84	=84
1I	D:maj	171.914	.	voice	1D 1f# 1a
=85	=85	=85	=85	=85	=85
1I	D:maj	173.939	newline	voice	1D 1f# 1a
=86	=86	=86	=86	=86	=86
1I	D:maj	175.98	.	voice	1D 1f# 1a
=87	=87	=87	=87	=87	=87
1IId	E:maj/b7	178.02	.	voice	1e 1g# 1b
=88	=88	=88	=88	=88	=88
1IId	E:maj/b7	180.061	.	voice	1e 1g# 1b
=89	=89	=89	=89	=89	=89
1iid	E:min/b7	182.102	newline	voice	1e 1g 1b
=90	=90	=90	=90	=90	=90
1iio7d	E:hdim7/b7	184.13	.	voice	1e 1g 1b- 1D
=91	=91	=91	=91	=91	=91
1I	D:maj	186.159	.	voice	1D 1f# 1a
=92	=92	=92	=92	=92	=92
1I	D:maj	188.187	.	voice	1D 1f# 1a
=93	=93	=93	=93	=93	=93
*>A_verse	*>A_verse	*>A_verse	*>A_verse	*>A_verse	*>A_verse
*E-:	*E-:	*	*	*	*E-:
1I	E-:maj	190.216	newline	voice	1E- 1g 1b-
=94	=94	=94	=94	=94	=94
1I	E-:maj	192.243	.	voice	1E- 1g 1b-
=95	=95	=95	=95	=95	=95
1iid	F:min/b7	194.27	.	voice	1f 1a- 1cc
=96	=96	=96	=96	=96	=96
1iid	F:min/b7	196.298	.	voice	1f 1a- 1cc
=97	=97	=97	=97	=97	=97
1iid	F:min/b7	198.325	newline	voice	1f 1a- 1cc
=98	=98	=98	=98	=98	=98
1iio7d	F:hdim7/b7	200.336	.	voice	1f 1a- 1cc- 1E-
=99	=99	=99	=99	=99	=99
1I	E-:maj	202.347	.	voice	1E- 1g 1b-
=100	=100	=100	=100	=100	=100
1I	E-:maj	204.357	.	voice	1E- 1g 1b-
=101	=101	=101	=101	=101	=101
1I	E-:maj	206.368	newline	voice	1E- 1g 1b-
=102	=102	=102	=102	=102	=102
1I	E-:maj	208.403	.	voice	1E- 1g 1b-
=103	=103	=103	=103	=103	=103
1iid	F:min/b7	210.439	.	voice	1f 1a- 1cc
=104	=104	=104	=104	=104	=104
1iid	F:min/b7	212.474	.	voice	1f 1a- 1cc
=105	=105	=105	=105	=105	=105
1iid	F:min/b7	214.509	newline	voice	1f 1a- 1cc
=106	=106	=106	=106	=106	=106
1iio7d	F:hdim7/b7	216.525	.	voice	1f 1a- 1cc- 1E-
=107	=107	=107	=107	=107	=107
1I	E-:maj	218.54	.	voice	1E- 1g 1b-
=108	=108	=108	=108	=108	=108
1I	E-:maj	220.556	.	voice	1E- 1g 1b-
=109	=109	=109	=109	=109	=109
*>A_fadeout	*>A_fadeout	*>A_fadeout	*>A_fadeout	*>A_fadeout	*>A_fadeout
1I	E-:maj	222.572	newline	voice	1E- 1g 1b-
=110	=110	=110	=110	=110	=110
1I	E-:maj	224.602	.	voice	1E- 1g 1b-
=111	=111	=111	=111	=111	=111
1iid	F:min/b7	226.632	.	voice	1f 1a- 1cc
=112	=112	=112	=112	=112	=112
1iid	F:min/b7	228.662	.	voice	1f 1a- 1cc
=113	=113	=113	=113	=113	=113
1iid	F:min/b7	230.692	newline	voice	1f 1a- 1cc
=114	=114	=114	=114	=114	=114
1iio7d	F:hdim7/b7	232.793	.	voice	1f 1a- 1cc- 1E-
=115	=115	=115	=115	=115	=115
1I	E-:maj	234.894	.	voice	1E- 1g 1b-
=116	=116	=116	=116	=116	=116
1I	E-:maj	236.995	.	voice	1E- 1g 1b-
1r;	N	239.096	.	r	1r;
1r;	N	242.913	.	r	1r;
*-	*-	*-	*-	*-	*-
!!!OTL: (Your Love Has Lifted Me) Higher And Higher
!!!COC: Rita Coolidge
!!!BillboardChartDate: 1977/08/13
!!!BillboardPeak: 2
!!!BillboardWeeksOnChart: 27
!!!SampleTargetRank: 5
!!!SampleActualRank: 4
!!!SampleID#: 0336
!!!RDF**harmony: **recip + pitch class of root + harmonic quality
!!!RDF**harte: Chris Harte's syntax, used by MIREX
!!!RDF**phrase: newline = linebreak in original McGill transcription
!!!RDF**timestamp: McGill audio timestamp in seconds
!!!RDF**leadinstrument: original McGill primary instrumentation annotation
!!!RDT: 2017/01/12/
!!!ENC: Nathaniel Condit-Schultz
!!!EST: Awating manual error checking and editing.
